X:1     %Music
T:Father Grumble
B:Randolph, V, 1982. Ozark Folksongs, Illinois Press, Urbana
S:Fanny Mulhollan, Pineville, Mo., Dec 21, 1927
Z:Randolph, V
M:6/8     %Meter
L:1/8     %
K:C
G, |EEE E/E3/2E |FFF F2 F |G2 G e2 c | G3-G z
w:There was an old wom-an, there was an old man, Who nev-er could a-gree;_
 G |ccc E2 E |FFF A2 A |G2 G F2 B, | C3-C z2 |]
w: He said he could do more work in a day Than she could do in three 